X:477
T: WENN ALLE BAECHLEIN FLIESSEN
N: E0429A
O: Europa, Mitteleuropa, Deutschland, Ober - Hessen
R: Liebes - Lied
M: 4/4
L: 1/8
K: G
D2 | G2G2GFE2 | D2GBA2z2 |
BBB2A4 | G4z2
GA | B2ced2B2 | A2B2c2z2 |
B4d2B2 | A2G2A4 |
BBB2A4 | G4z2

@@@ Tune index: 4127
